X: 28
T: The Nonpareil
C: Scott Joplin
%%abc-version 2.0
%%abcx-abcm2ps-target-version 5.9.1 (29 Sep 2008)
%%abc-creator hum2abc beta
%%abcx-conversion-date 2021/07/20 09:00:57
%%abc-copyright 2021 Craig Stuart Sapp
%%abc-edited-by Craig Stuart Sapp
%%abc-edited-by Craig Stuart Sapp
%%abcx-initial-encoding-date 2004/11/28
%%humdrum-veritas 4075377458
%%humdrum-veritas-data 696402718
%%removed 0's from note length
%%linebreak <none>
%%barnumbers 0
L: 1/8
M: 2/4
N: Derived from nonpareil.krn
Q: "Slow march tempo." 1/4=88
%%staves {1 2}
V: 1 clef=treble
V: 2 clef=bass
K: Bb
[V:1] [K:clef=treble][M:2/4]f/=e/f/B/- B/d/_e/f/ | 
[V:2] [K:clef=bass][M:2/4]F/=E/F/B,/- B,/D/_E/F/ | 
[V:1] g/^f/g/c/- c/e/=f/g/ | 
[V:2] G/^F/G/C/- C/E/=F/G/ | 
[V:1] c'/=b/c' !accent![c_B=E]!accent![cB_E] | 
[V:2] A/^G/A !accent![G,G,,]!accent![_G,_G,,] | 
[V:1] !accent![c2A2E2]!accent![f2e2A2F2] ]|:  
[V:2] !accent![F,2F,,2]!accent![F,2F,,2] ]|:  
[V:1] f/e/d/c/- c/d/e/f/ & A4 | 
[V:2] C,[EA,F,] F,,[EA,F,] | 
[V:1] [g2e2]-[g/e/]A/c/d/ & A4 | 
[V:2] C,[EA,F,] [F,F,,][E,E,,] | 
[V:1] c/B/A/B/- B/c/d/e/ & F4 | 
[V:2] [D,D,,][DB,F,] F,,[DB,F,] | 
[V:1] f2-f/b/a/_a/ & [d2B2]-[dB] z | 
[V:2] [B,,B,,,][DB,F,] [D,D,,][DB,_A,F,] | 
[V:1] g/e/B/G/- G/B/e/g/ | 
[V:2] z [EB,G,]-[E2B,2G,2] & [E,2E,,2][C,C,,][^C,^C,,] | 
[V:1] f/d/B/F/- F/B/c/d/ | 
[V:2] [D,D,,][DB,F,] G,,[DB,G,] | 
[V:1] =e/g/b/c'/- c'/c/B/g/ | 
[V:2] [C,C,,][=ECB,] [=E,=E,,][ECB,] | 
[V:1] [f2A2]-[f/A/]A/c/g/ | 
[V:2] [F,F,,]{/=B,,}C,F,, z | 
[V:1] f/e/d/c/- c/d/e/f/ & A4 | 
[V:2] C,[_EA,F,] F,,[EA,F,] | 
[V:1] [g2e2]-[g/e/]A/c/d/ & A4 | 
[V:2] C,[EA,F,] [F,F,,][E,E,,] | 
[V:1] c/B/A/B/- B/c/d/e/ & F4 | 
[V:2] [D,D,,][DB,F,] F,,[DB,F,] | 
[V:1] f2-f/d/F/c/ & [d2B2]-[dB] z | 
[V:2] [B,,B,,,][DB,F,] [D,D,,][DB,_A,F,] | 
[V:1] B/G/A/B/- B/GA/ | 
[V:2] [E,E,,][EB,G,] [=E,=E,,][^CB,G,] | 
[V:1] B/G/A/B/- B/b/_g/^c/ | 
[V:2] [F,F,,][DB,F,] [_G,_G,,][^CB,G,] | 
[V:1] d/F/G/[B/=E/]- [BE][cA_E] |[1 
[V:2] [F,F,,][DB,F,] [=G,=G,,][F,F,,] | 
[V:1] [B2D2]-[B/D/]F/B/d/ :|][2 
[V:2] [B,B,,]F,B,, z :|]  
[V:1] [B2D2]-[B/D/]F/B/d/ ]|: 
[V:2] [B,B,,]F,B,, z ]|:  
[V:1] [g2e2B2G2][e2B2G2E2] | 
[V:2] E,/B,,/C,/D,/ E,/F,/G,/A,/ | 
[V:1] [d3B3F3D3][fdBF] | 
[V:2] B,/A,/B,/C/ B,/F,/D,/B,,/ | 
[V:1] [c'ec][=b/d/=B/][c'/e/c/]- [c'/e/c/][a/e/A/][feF] | 
[V:2] F,,[EA,F,] A,,[EA,F,] | 
[V:1] [d'fd][^c'/=e/^c/][d'/f/d/]- [d'/f/d/][b/d/B/][fdBF] | 
[V:2] B,,[DB,F,] D,[DB,F,] | 
[V:1] [g2e2B2G2][e2B2G2E2] | 
[V:2] E,/B,,/C,/D,/ E,/F,/G,/A,/ | 
[V:1] [d2B2F2D2][d2B2G2D2] | 
[V:2] B,/A,/B,/A,/ G,/^F,/G,/D,/ | 
[V:1] [^f/^F/]c/d/[f/F/]- [f/F/][d/c/][fF] | 
[V:2] A,[DC] D,[DC] | 
[V:1] [g2d2B2G2][_a/f/d/]B/d/f/ & x2B[B_A] | 
[V:2] G,/B,/A,/G,/ F,B,, | 
[V:1] [g2e2B2G2][e2B2G2E2] | 
[V:2] E,/B,,/C,/D,/ E,/F,/G,/A,/ | 
[V:1] [d3B3F3D3][fdBF] | 
[V:2] B,/A,/B,/C/ B,/F,/D,/B,,/ | 
[V:1] [c'ec][=b/d/=B/][c'/-e/c/-] [c'/e/c/][a/e/A/][feF] | 
[V:2] F,,[EA,F,] A,,[EA,F,] | 
[V:1] [d'fd][^c'/=e/^c/][d'/f/d/]- [d'/f/d/][d'/f/d/][f'bf] | 
[V:2] B,,[DB,F,] [B,B,,][_A,_A,,] | 
[V:1] b4 & [f'/f/][e'/e/][d'/d/][e'/e/]- [e'/e/][f'/f/][e'e] | 
[V:2] [G,G,,][EB,G,] [_G,_G,,][EB,_G,] | 
[V:1] b4 & [e'/e/][d'/d/][^c'/^c/][d'/d/]- [d'/d/][e'/e/][d'd] | 
[V:2] [F,F,,][DB,F,] [D,D,,][DB,F,] | 
[V:1] [d'/f/d/][c'/e/c/][=b/d/=B/][c'/-e/c/-] [c'/e/c/][e'/e/][f'f] |[1 
[V:2] F,,[EA,F,] F,,[EA,F,] | 
[V:1] [b2d2B2]-[b/d/B/]=B/d/f/ :|][2 
[V:2] [B,B,,]F,D,B,, :|]  
[V:1] [b2d2B2]-[bdB] [fdBF] || 
[V:2] [B,B,,]F,B,,[_A,_A,,] ||  
[V:1]  [K:Eb] [e2B2G2E2][g2e2c2G2] | 
[V:2]  [K:Eb] [G,/G,,/][F,/F,,/][E,/E,,/][D,/D,,/] [C,C,,][B,,B,,,] | 
[V:1] c4 & [g/G/][f/F/][a/A/][c'/c/]- [c'/c/][b/B/][aA] | 
[V:2] [A,,A,,,][CA,F,] [A,,A,,,][CA,F,] | 
[V:1] d4 & [g/G/][f/F/][a/A/][c'/c/]- [c'/c/][b/B/][aA] | 
[V:2] [B,,B,,,][DA,F,] [B,,B,,,][DB,A,] | 
[V:1] [g/e/G/][e'/g/e/][c'/g/c/][b/g/d/B/]- [b/g/d/B/][g/e/B/G/][fdBF] | 
[V:2] [E,E,,][EB,G,] [B,B,,][A,A,,] | 
[V:1] [e2B2G2E2][g2e2c2G2] | 
[V:2] [G,/G,,/][F,/F,,/][E,/E,,/][D,/D,,/] [C,C,,][ECG,] | 
[V:1] [g/d/B/G/][e'/e/][d'/d/][b/B/]- [b/B/][=a/=A/][gdBG] | 
[V:2] [D,D,,][DB,G,] [D,D,,][DB,G,] | 
[V:1] [^f/d/c/^F/][e'/e/][d'/d/][c'/c/]- [c'/c/][b/B/][=adc=A] | 
[V:2] [D,D,,][DC^F,] [D,D,,][DCF,] | 
[V:1] [g3d3B3G3][fdBF] | 
[V:2] [G,G,,][D/D,/][C/C,/] [B,B,,][_A,_A,,] | 
[V:1] [e2B2G2E2][g2e2c2G2] | 
[V:2] [G,/G,,/][F,/F,,/][E,/E,,/][D,/D,,/] [C,C,,][B,,B,,,] | 
[V:1] c4 & [g/G/][f/F/][a/A/][c'/c/]- [c'/c/][b/B/][aA] | 
[V:2] [A,,A,,,][CA,F,] [A,,A,,,][CA,F,] | 
[V:1] d4 & [g/G/][f/F/][a/A/][c'/c/]- [c'/c/][b/B/][aA] | 
[V:2] [B,,B,,,][DA,F,] [B,,B,,,][DB,A,] | 
[V:1] [g/e/G/][a/f/A/][=a/^f/=A/][b/g/B/]- [b/g/B/][b/g/B/][=bg=f=B] | 
[V:2] [E,E,,][EB,G,] [E,E,,][D,D,,] | 
[V:1] [g4=e4] & [c'/c/][=B/=b/][c/c'/][_d/_d'/]- [d/d'/][c/c'/][cc'] | 
[V:2] [C,C,,][=ECB,] [=E,=E,,][ECB,] | 
[V:1] [f3a3][e^f] & [c'/c/][=b/=B/][c'/c/][_d'/_d/]- [d'/d/][c'/c/][c'c] | 
[V:2] [F,F,,][FCA,] [A,A,,][=A,=A,,] | 
[V:1] [c'/g/e/c/]b/g/B/- B/g/[fdA] |[1 
[V:2] [B,B,,][EB,G,] [B,,B,,,][DB,A,] | 
[V:1] [e3B3G3][fdBF] :|][2 
[V:2] [E,E,,][CC,][B,B,,][A,A,,] :|]  
[V:1] [e2B2G2][bB][bB] ]|: 
[V:2] [E,E,,][EB,G,][G,G,,][=E,=E,,] ]|:  
[V:1] b/d'/d/a/ c'/cd/ | 
[V:2] [F,F,,][DB,A,] [B,,B,,,][DB,A,] | 
[V:1] a/B/c/d/- d/g/[fA] | 
[V:2] [F,F,,][DB,A,] [B,,B,,,][DB,A,] | 
[V:1] [f/G/]e/G/[B/G/]- [B/G/]e/[c^F] | 
[V:2] [E,E,,][EB,G,] [E,E,,][EC=A,^F,] | 
[V:1] [B2G2]-[B/G/]B/e/g/ | 
[V:2] [E,E,,][EB,G,] [B,,B,,,][EB,G,] | 
[V:1] [f/d/][g/e/][a/f/][c'/a/]- [c'/a/][b/g/][af] | 
[V:2] [B,,B,,,][DB,A,] [D,D,,][DB,A,] | 
[V:1] [f2d2]-[f/d/]d/f/a/ | 
[V:2] [B,,B,,,][DB,A,] [F,F,,][DB,A,] | 
[V:1] [g/e/][a/f/][b/g/][e'/g/]- [e'/g/]c'/b/e/ | 
[V:2] [E,E,,][EB,G,] [B,,B,,,][EB,G,] | 
[V:1] [g2e2][bB][bB] | 
[V:2] [E,E,,][EB,G,] [G,G,,][=E,=E,,] | 
[V:1] b/d'/d/a/ c'/cd/ | 
[V:2] [F,F,,][DB,A,] [B,,B,,,][DB,A,] | 
[V:1] a/B/c/d/- d/g/[fA] | 
[V:2] [F,F,,][DB,A,] [B,,B,,,][DB,A,] | 
[V:1] [f/G/]e/G/[B/G/]- [B/G/]e/c'/b/ | 
[V:2] [E,E,,][EB,G,] [B,,B,,,][EB,G,] | 
[V:1] [g2e2]-[g/e/]e/g/b/ | 
[V:2] [E,E,,][EB,G,] [EE,][_D_D,] | 
[V:1] e4 & [b/B/][a/A/][g/G/][a/A/]- [a/A/][b/B/][aA] | 
[V:2] [CC,][ECA,] [_C_C,][E_CA,] | 
[V:1] e4 & [a/A/][g/G/][^f/^F/][g/G/]- [g/G/][a/A/][gG] | 
[V:2] [B,B,,][EB,G,] [G,G,,][EB,G,] | 
[V:1] [g/B/G/][f/A/F/][=e/G/=E/][f/A/F/]- [f/A/F/][a/A/][bB] |[1 
[V:2] [B,,B,,,][DB,A,] [B,,B,,,][DB,A,] | 
[V:1] [e2G2E2][bB][bB] :|][2 
[V:2] [E,E,,][B,G,][G,G,,][=E,=E,,] :|]  
[V:1] [e2G2E2][e'ge] z |]  
[V:2] [E,E,,]B,,E,, z |]  


